X:1     %Music
T:Ould John Braddlum
B:Singing Together, Autumn 1965, BBC Publications
F:http://www.folkinfo.org/songs
M:4/4     %Meter
L:1/8     %
K:F
A2 B2 c4 |A2 B2 c4 |d2 d2 G2 (GA) |B2 (BG) (FE) 
w:Num-ber one, num-ber one; Now my song has_ just be-*gun_ 
DC |F2 F2 ED C2 |F2 F2 ED C2 |c3 d c2 B2 |A2 G2 F4 |]
w: Wi' a rum-tum-tad-dle-um, Ould John Brad-dl-um, Hey, what coun-try folk we be. 